assets/svgs/misc-grey/MiscGrey70.svg

<svg width="34" height="48" viewBox="0 0 34 48" fill="none" xmlns="http://www.w3.org/2000/svg">
<path fill-rule="evenodd" clip-rule="evenodd" d="M31.562 44.02H1.95398C1.12498 44.02 0.453979 44.7 0.453979 45.52C0.453979 46.35 1.12498 47.02 1.95398 47.02H31.562C32.391 47.02 33.062 46.35 33.062 45.52C33.062 44.7 32.391 44.02 31.562 44.02ZM16.647 3.07996C22.73 3.07996 26.874 7.94996 27.365 12.66C27.489 13.85 27.338 15.23 26.891 16.99C26.625 18.04 25.672 20.11 24.904 21.31C24.532 21.93 19.185 31.03 16.64 35.37L7.81598 19.84L7.75798 19.74C7.53298 19.34 7.06498 18.5 6.73398 17.46C6.31298 16.13 6.10798 14.87 6.10798 13.62C6.10798 7.80996 10.836 3.07996 16.647 3.07996ZM5.14398 21.21L5.19998 21.31C5.20198 21.31 5.20498 21.32 5.20698 21.32L15.314 39.1C15.579 39.57 16.072 39.86 16.608 39.86C16.612 39.86 16.615 39.86 16.619 39.86C17.15 39.86 17.643 39.58 17.912 39.12C18.003 38.97 27.005 23.64 27.452 22.89C28.277 21.61 29.417 19.23 29.798 17.73C30.336 15.62 30.511 13.91 30.349 12.35C29.619 5.35996 23.729 0.0799561 16.647 0.0799561C9.18198 0.0799561 3.10798 6.15996 3.10798 13.62C3.10798 15.18 3.35898 16.73 3.87398 18.36C4.29798 19.7 4.89098 20.76 5.14398 21.21Z" fill="#1A1919"/>
</svg>

<svg xmlns="http://www.w3.org/2000/svg" fill="none" viewBox="0 0 34 48"><path fill="#1A1919" fill-rule="evenodd" d="M31.562 44.02H1.954c-.829 0-1.5.68-1.5 1.5 0 .83.671 1.5 1.5 1.5h29.608c.829 0 1.5-.67 1.5-1.5 0-.82-.671-1.5-1.5-1.5zM16.647 3.08c6.083 0 10.227 4.87 10.718 9.58.124 1.19-.027 2.57-.474 4.33-.266 1.05-1.219 3.12-1.987 4.32-.372.62-5.719 9.72-8.264 14.06L7.816 19.84l-.058-.1c-.225-.4-.693-1.24-1.024-2.28-.421-1.33-.626-2.59-.626-3.84 0-5.81 4.728-10.54 10.539-10.54zM5.144 21.21l.056.1c.002 0 .005.01.007.01L15.314 39.1c.265.47.758.76 1.294.76h.011c.531 0 1.024-.28 1.293-.74.091-.15 9.093-15.48 9.54-16.23.825-1.28 1.965-3.66 2.346-5.16.538-2.11.713-3.82.551-5.38C29.619 5.36 23.729.08 16.647.08 9.182.08 3.108 6.16 3.108 13.62c0 1.56.251 3.11.766 4.74.424 1.34 1.017 2.4 1.27 2.85z" clip-rule="evenodd"/></svg>
